X:71
T:Nightingale Quick Step,The. JBs.071
S:Jas.Blackshaw MS, 1837, N.Shropshire
A:North Shropshire
Z:T. Weatherall 2006
M:2/4
L:1/8
Q:1/4=100
R:March
K:C
G|c2dB|cege|c>e dB|ce g2|ee fd|ee fd|eg a/g/f/e/|(e2{d/e/}d):|!
|:f|g3^f|g3d|g/a/b/câ€™/ dâ€™/câ€™/b/a/|gg/g/ gg|câ€™3g|e3 g|eceg|cc/c/ c:|!
|:z|efga|gfeg|fede|fefd|efga|g^fge|fdcB|(c2c):|!
g|c2dB|cege|cedB|ceg2|ee fd|ee fd|eg a/g/f/e/|e2{d/e/}df|!
g3^f|g3^f|g/a/b/câ€™/ dâ€™/câ€™/b/a/|gg/g/ gg|câ€™3g|e3g|eceg|cc/c/ c|]

